src/assets/icons/real-estate/pool.svg

<svg width="48" height="48" viewBox="0 0 48 48" fill="none" xmlns="http://www.w3.org/2000/svg">
<rect width="48" height="48" fill="white"/>
<path fill-rule="evenodd" clip-rule="evenodd" d="M14.1936 16.2812H19.3549V14.2187H14.1936V16.2812ZM10.0645 10.0937C10.0645 10.664 9.60311 11.125 9.03226 11.125C8.46142 11.125 8 10.664 8 10.0937C8 8.38806 9.3884 7 11.0968 7C12.8042 7 14.1936 8.38806 14.1936 10.0937V12.1562H19.3549V10.0937C19.3549 9.52449 18.8925 9.06249 18.3226 9.06249C17.7528 9.06249 17.2904 9.52449 17.2904 10.0937C17.2904 10.664 16.829 11.125 16.2581 11.125C15.6873 11.125 15.2259 10.664 15.2259 10.0937C15.2259 8.38806 16.6142 7 18.3226 7C20.03 7 21.4194 8.38806 21.4194 10.0937V20.4062C21.4194 20.9765 20.958 21.4375 20.3872 21.4375C19.8163 21.4375 19.3549 20.9765 19.3549 20.4062V18.3437H14.1936V20.4062C14.1936 20.9765 13.7322 21.4375 13.1613 21.4375C12.5905 21.4375 12.1291 20.9765 12.1291 20.4062V10.0937C12.1291 9.52449 11.6666 9.06249 11.0968 9.06249C10.527 9.06249 10.0645 9.52449 10.0645 10.0937ZM16.6137 24.7801C17.2795 24.2099 18.1074 23.5004 19.6919 23.5004C21.2785 23.5004 22.1064 24.2099 22.7722 24.7801C23.3214 25.2514 23.6858 25.5629 24.5064 25.5629C25.3291 25.5629 25.6925 25.2514 26.2437 24.7801C26.9095 24.2099 27.7374 23.5004 29.324 23.5004C30.9127 23.5004 31.7405 24.2088 32.4074 24.7791C32.9586 25.2514 33.323 25.5629 34.1457 25.5629C34.9705 25.5629 35.3349 25.2514 35.8861 24.7791C36.5519 24.2088 37.3808 23.5004 38.9674 23.5004C39.5383 23.5004 39.9997 23.9613 39.9997 24.5316C39.9997 25.1019 39.5383 25.5629 38.9674 25.5629C38.1437 25.5629 37.7803 25.8743 37.2291 26.3466C36.5623 26.9158 35.7333 27.6253 34.1457 27.6253C32.5591 27.6253 31.7312 26.9158 31.0644 26.3466C30.5132 25.8743 30.1488 25.5629 29.324 25.5629C28.5023 25.5629 28.1379 25.8743 27.5867 26.3466C26.9209 26.9158 26.093 27.6253 24.5064 27.6253C22.9209 27.6253 22.093 26.9148 21.4272 26.3456C20.878 25.8743 20.5136 25.5629 19.6919 25.5629C18.8723 25.5629 18.5079 25.8743 17.9588 26.3456C17.293 26.9148 16.4641 27.6253 14.8785 27.6253C13.2929 27.6253 12.464 26.9148 11.7993 26.3456C11.2501 25.8743 10.8857 25.5629 10.064 25.5629C9.4942 25.5629 9.03175 25.1019 9.03175 24.5316C9.03175 23.9613 9.4942 23.5004 10.064 23.5004C11.6496 23.5004 12.4785 24.2099 13.1443 24.7801C13.6935 25.2514 14.0568 25.5629 14.8785 25.5629C15.7002 25.5629 16.0646 25.2514 16.6137 24.7801ZM38.9677 29.6875C39.5386 29.6875 40 30.1485 40 30.7188C40 31.2891 39.5386 31.75 38.9677 31.75C38.144 31.75 37.7806 32.0615 37.2284 32.5338C36.5626 33.1041 35.7336 33.8125 34.146 33.8125C32.5594 33.8125 31.7305 33.1041 31.0647 32.5338C30.5135 32.0615 30.1491 31.75 29.3243 31.75C28.5016 31.75 28.1382 32.0615 27.587 32.5338C26.9212 33.1041 26.0923 33.8125 24.5067 33.8125C22.9212 33.8125 22.0923 33.103 21.4275 32.5327C20.8783 32.0615 20.5139 31.75 19.6923 31.75C18.8716 31.75 18.5082 32.0615 17.9581 32.5327C17.2933 33.103 16.4644 33.8125 14.8788 33.8125C13.2932 33.8125 12.4643 33.103 11.7996 32.5327C11.2494 32.0615 10.886 31.75 10.0643 31.75C9.49348 31.75 9.03206 31.2891 9.03206 30.7188C9.03206 30.1485 9.49348 29.6875 10.0643 29.6875C11.6499 29.6875 12.4788 30.397 13.1436 30.9673C13.6938 31.4386 14.0571 31.75 14.8788 31.75C15.7005 31.75 16.0649 31.4386 16.614 30.9673C17.2788 30.397 18.1077 29.6875 19.6923 29.6875C21.2778 29.6875 22.1067 30.397 22.7725 30.9673C23.3217 31.4386 23.6851 31.75 24.5067 31.75C25.3295 31.75 25.6928 31.4386 26.244 30.9673C26.9088 30.397 27.7377 29.6875 29.3243 29.6875C30.9119 29.6875 31.7409 30.396 32.4077 30.9663C32.9589 31.4386 33.3223 31.75 34.146 31.75C34.9708 31.75 35.3342 31.4386 35.8864 30.9663C36.5522 30.396 37.3811 29.6875 38.9677 29.6875ZM38.9677 35.875C39.5386 35.875 40 36.336 40 36.9063C40 37.4765 39.5386 37.9375 38.9677 37.9375C38.144 37.9375 37.7806 38.2489 37.2284 38.7213C36.5626 39.2915 35.7336 40 34.146 40C32.5594 40 31.7305 39.2915 31.0647 38.7213C30.5135 38.2489 30.1491 37.9375 29.3243 37.9375C28.5016 37.9375 28.1382 38.2489 27.587 38.7213C26.9212 39.2915 26.0923 40 24.5067 40C22.9212 40 22.0923 39.2905 21.4275 38.7202C20.8783 38.2489 20.5139 37.9375 19.6923 37.9375C18.8716 37.9375 18.5082 38.2489 17.9581 38.7202C17.2933 39.2905 16.4644 40 14.8788 40C13.2932 40 12.4643 39.2905 11.7996 38.7202C11.2494 38.2489 10.886 37.9375 10.0643 37.9375C9.49348 37.9375 9.03206 37.4765 9.03206 36.9063C9.03206 36.336 9.49348 35.875 10.0643 35.875C11.6499 35.875 12.4788 36.5845 13.1436 37.1548C13.6938 37.6261 14.0571 37.9375 14.8788 37.9375C15.7005 37.9375 16.0649 37.6261 16.614 37.1548C17.2788 36.5845 18.1077 35.875 19.6923 35.875C21.2778 35.875 22.1067 36.5845 22.7725 37.1548C23.3217 37.6261 23.6851 37.9375 24.5067 37.9375C25.3295 37.9375 25.6928 37.6261 26.244 37.1548C26.9088 36.5845 27.7377 35.875 29.3243 35.875C30.9119 35.875 31.7409 36.5835 32.4077 37.1538C32.9589 37.6261 33.3223 37.9375 34.146 37.9375C34.9708 37.9375 35.3342 37.6261 35.8864 37.1538C36.5522 36.5835 37.3811 35.875 38.9677 35.875Z" fill="#253238"/>
</svg>

<svg width="48" height="48" viewBox="0 0 48 48" fill="none" xmlns="http://www.w3.org/2000/svg"><path fill-rule="evenodd" clip-rule="evenodd" d="M14.194 16.281h5.16V14.22h-5.16v2.062zm-4.13-6.187a1.03 1.03 0 01-1.032 1.031A1.03 1.03 0 018 10.094 3.098 3.098 0 0111.097 7a3.099 3.099 0 013.097 3.094v2.062h5.16v-2.062a1.032 1.032 0 00-2.064 0 1.03 1.03 0 01-1.032 1.031 1.03 1.03 0 01-1.032-1.031A3.098 3.098 0 0118.323 7a3.099 3.099 0 013.096 3.094v10.312a1.03 1.03 0 01-1.032 1.032 1.03 1.03 0 01-1.032-1.032v-2.062h-5.161v2.062a1.03 1.03 0 01-1.033 1.032 1.03 1.03 0 01-1.032-1.032V10.094a1.032 1.032 0 00-2.064 0zm6.55 14.686c.665-.57 1.493-1.28 3.078-1.28 1.587 0 2.414.71 3.08 1.28.55.471.914.783 1.734.783.823 0 1.186-.312 1.738-.783.666-.57 1.493-1.28 3.08-1.28 1.589 0 2.416.709 3.083 1.28.552.471.916.783 1.739.783.825 0 1.189-.312 1.74-.784.666-.57 1.495-1.279 3.081-1.279a1.03 1.03 0 110 2.063c-.823 0-1.187.311-1.738.784-.667.569-1.496 1.278-3.083 1.278-1.587 0-2.415-.71-3.082-1.278-.55-.473-.915-.784-1.74-.784-.822 0-1.186.311-1.737.784-.666.569-1.494 1.278-3.08 1.278s-2.414-.71-3.08-1.28c-.549-.47-.913-.782-1.735-.782-.82 0-1.184.311-1.733.783-.666.569-1.495 1.28-3.08 1.28-1.586 0-2.415-.711-3.08-1.28-.549-.472-.913-.783-1.735-.783a1.031 1.031 0 110-2.063c1.586 0 2.415.71 3.08 1.28.55.471.913.783 1.735.783.821 0 1.186-.312 1.735-.783zm22.354 4.907a1.03 1.03 0 110 2.063c-.824 0-1.187.312-1.74.784-.665.57-1.494 1.279-3.082 1.279-1.587 0-2.416-.709-3.081-1.28-.552-.471-.916-.783-1.74-.783-.823 0-1.187.312-1.738.784-.666.57-1.495 1.279-3.08 1.279-1.586 0-2.415-.71-3.08-1.28-.549-.471-.913-.783-1.735-.783-.82 0-1.184.312-1.734.783-.665.57-1.494 1.28-3.08 1.28-1.585 0-2.414-.71-3.078-1.28-.55-.471-.914-.783-1.736-.783a1.03 1.03 0 110-2.063c1.586 0 2.415.71 3.08 1.28.55.472.913.783 1.735.783.822 0 1.186-.311 1.735-.783.665-.57 1.494-1.28 3.078-1.28 1.586 0 2.415.71 3.08 1.28.55.472.913.783 1.735.783.822 0 1.186-.311 1.737-.783.665-.57 1.494-1.28 3.08-1.28 1.588 0 2.417.709 3.084 1.28.55.472.914.783 1.738.783.825 0 1.188-.311 1.74-.784.666-.57 1.495-1.279 3.082-1.279zm0 6.188a1.03 1.03 0 110 2.063c-.824 0-1.187.31-1.74.783-.665.57-1.494 1.279-3.082 1.279-1.587 0-2.416-.709-3.081-1.279-.552-.472-.916-.783-1.74-.783-.823 0-1.187.31-1.738.783-.666.57-1.495 1.279-3.08 1.279-1.586 0-2.415-.71-3.08-1.28-.549-.471-.913-.782-1.735-.782-.82 0-1.184.31-1.734.782-.665.57-1.494 1.28-3.08 1.28-1.585 0-2.414-.71-3.078-1.28-.55-.471-.914-.782-1.736-.782a1.03 1.03 0 110-2.063c1.586 0 2.415.71 3.08 1.28.55.471.913.782 1.735.782.822 0 1.186-.31 1.735-.782.665-.57 1.494-1.28 3.078-1.28 1.586 0 2.415.71 3.08 1.28.55.471.913.782 1.735.782.822 0 1.186-.31 1.737-.782.665-.57 1.494-1.28 3.08-1.28 1.588 0 2.417.709 3.084 1.279.55.472.914.783 1.738.783.825 0 1.188-.31 1.74-.783.666-.57 1.495-1.279 3.082-1.279z" fill="#253238"/></svg>
